X: 36924
T: Shore Road, The
R: hornpipe
M: 4/4
K: Gmajor
BA|:G2BD GBDG|BDGB- BBAB|cBAG !turn!F3D|FDFG A2BA|
G2BD GBDG|BDGB- BBAB|cBAG !turn!F3G|1 A2G2 G2BA:|2 A2G2 G2AB||
cE3- EF (3GFE|B2D2 D4|cBAG !turn!F3D|FDFG A2B2|
cEGc EGcE|B2D2 D4|cBAG !turn!F3G|A2G2 G2AB|
ce2c e2cB-|Bd2B d2B2|cBAG !turn!F3D|FDFG A2B2|
(3c2e2e2 (3e2e2e2|(3g2d2c2 B4|cBAG !turn!F3G|A2G2 G2||

